X:529
T:Where Are You Going Love?
M:6/8
L:1/8
B:O'Neill's 529
N:"With spirit" "collected by F. O'Neill"
Z:Transcribed by Dave Wooldridge
K:G
(G/2F/2) \
|DG.G GAB|cAG FGA|cBAB cAF|AG.G G2 F|
DG.G GAB|dcAG  FGA|d/2e/2f.d cAF|AG.G G2||
d \
|def .g2 .g|fed cAF|.Ggf ga.g|fd.d d2 e|
f/2g/2a.g fed|cdB ABc|d/2e/2f.d cAF|AG.G G2||
